images/16758551.svg

<?xml version="1.0" encoding="UTF-8"?>
<svg xmlns="http://www.w3.org/2000/svg" xmlns:xlink="http://www.w3.org/1999/xlink" width="300pt" height="300pt" viewBox="0 0 300 300" version="1.1">
<defs>
<g>
<symbol overflow="visible" id="glyph0-0">
<path style="stroke:none;" d="M 0.453125 1.59375 L 0.453125 -6.34375 L 4.953125 -6.34375 L 4.953125 1.59375 Z M 0.953125 1.09375 L 4.453125 1.09375 L 4.453125 -5.84375 L 0.953125 -5.84375 Z M 0.953125 1.09375 "/>
</symbol>
<symbol overflow="visible" id="glyph0-1">
<path style="stroke:none;" d="M 3.546875 -5.953125 C 2.898438 -5.953125 2.382812 -5.710938 2 -5.234375 C 1.625 -4.753906 1.4375 -4.101562 1.4375 -3.28125 C 1.4375 -2.445312 1.625 -1.789062 2 -1.3125 C 2.382812 -0.832031 2.898438 -0.59375 3.546875 -0.59375 C 4.191406 -0.59375 4.703125 -0.832031 5.078125 -1.3125 C 5.453125 -1.789062 5.640625 -2.445312 5.640625 -3.28125 C 5.640625 -4.101562 5.453125 -4.753906 5.078125 -5.234375 C 4.703125 -5.710938 4.191406 -5.953125 3.546875 -5.953125 Z M 3.546875 -6.6875 C 4.460938 -6.6875 5.195312 -6.375 5.75 -5.75 C 6.300781 -5.132812 6.578125 -4.3125 6.578125 -3.28125 C 6.578125 -2.238281 6.300781 -1.410156 5.75 -0.796875 C 5.195312 -0.179688 4.460938 0.125 3.546875 0.125 C 2.617188 0.125 1.878906 -0.179688 1.328125 -0.796875 C 0.773438 -1.410156 0.5 -2.238281 0.5 -3.28125 C 0.5 -4.3125 0.773438 -5.132812 1.328125 -5.75 C 1.878906 -6.375 2.617188 -6.6875 3.546875 -6.6875 Z M 3.546875 -6.6875 "/>
</symbol>
<symbol overflow="visible" id="glyph0-2">
<path style="stroke:none;" d="M 1.765625 -3.140625 L 1.765625 -0.734375 L 3.1875 -0.734375 C 3.664062 -0.734375 4.019531 -0.832031 4.25 -1.03125 C 4.476562 -1.226562 4.59375 -1.53125 4.59375 -1.9375 C 4.59375 -2.34375 4.476562 -2.644531 4.25 -2.84375 C 4.019531 -3.039062 3.664062 -3.140625 3.1875 -3.140625 Z M 1.765625 -5.828125 L 1.765625 -3.859375 L 3.078125 -3.859375 C 3.515625 -3.859375 3.835938 -3.9375 4.046875 -4.09375 C 4.265625 -4.257812 4.375 -4.507812 4.375 -4.84375 C 4.375 -5.175781 4.265625 -5.421875 4.046875 -5.578125 C 3.835938 -5.742188 3.515625 -5.828125 3.078125 -5.828125 Z M 0.890625 -6.5625 L 3.15625 -6.5625 C 3.832031 -6.5625 4.351562 -6.421875 4.71875 -6.140625 C 5.082031 -5.859375 5.265625 -5.457031 5.265625 -4.9375 C 5.265625 -4.539062 5.171875 -4.222656 4.984375 -3.984375 C 4.796875 -3.742188 4.519531 -3.59375 4.15625 -3.53125 C 4.59375 -3.4375 4.929688 -3.238281 5.171875 -2.9375 C 5.410156 -2.644531 5.53125 -2.28125 5.53125 -1.84375 C 5.53125 -1.25 5.332031 -0.789062 4.9375 -0.46875 C 4.539062 -0.15625 3.972656 0 3.234375 0 L 0.890625 0 Z M 0.890625 -6.5625 "/>
</symbol>
<symbol overflow="visible" id="glyph0-3">
<path style="stroke:none;" d="M 3.703125 -4.171875 C 3.609375 -4.222656 3.507812 -4.257812 3.40625 -4.28125 C 3.300781 -4.300781 3.179688 -4.3125 3.046875 -4.3125 C 2.585938 -4.3125 2.234375 -4.160156 1.984375 -3.859375 C 1.742188 -3.566406 1.625 -3.144531 1.625 -2.59375 L 1.625 0 L 0.8125 0 L 0.8125 -4.921875 L 1.625 -4.921875 L 1.625 -4.15625 C 1.800781 -4.457031 2.023438 -4.679688 2.296875 -4.828125 C 2.566406 -4.972656 2.894531 -5.046875 3.28125 -5.046875 C 3.34375 -5.046875 3.40625 -5.039062 3.46875 -5.03125 C 3.539062 -5.019531 3.617188 -5.007812 3.703125 -5 Z M 3.703125 -4.171875 "/>
</symbol>
</g>
</defs>
<g id="surface45525">
<rect x="0" y="0" width="300" height="300" style="fill:rgb(100%,100%,100%);fill-opacity:1;stroke:none;"/>
<path style="fill:none;stroke-width:1.2;stroke-linecap:butt;stroke-linejoin:miter;stroke:rgb(0%,0%,0%);stroke-opacity:1;stroke-miterlimit:10;" d="M 264.75 224.34375 L 253.402344 218.742188 "/>
<path style="fill:none;stroke-width:1.2;stroke-linecap:butt;stroke-linejoin:miter;stroke:rgb(100%,0%,0%);stroke-opacity:1;stroke-miterlimit:10;" d="M 253.402344 218.742188 L 242.054688 213.136719 "/>
<path style="fill:none;stroke-width:1.2;stroke-linecap:butt;stroke-linejoin:miter;stroke:rgb(100%,0%,0%);stroke-opacity:1;stroke-miterlimit:10;" d="M 242.054688 213.136719 L 241.234375 200.511719 "/>
<path style="fill:none;stroke-width:1.2;stroke-linecap:butt;stroke-linejoin:miter;stroke:rgb(0%,0%,0%);stroke-opacity:1;stroke-miterlimit:10;" d="M 241.234375 200.511719 L 240.414062 187.882812 "/>
<path style=" stroke:none;fill-rule:nonzero;fill:rgb(100%,100%,100%);fill-opacity:1;" d="M 238.054688 207.636719 L 246.054688 207.636719 L 246.054688 218.636719 L 238.054688 218.636719 Z M 238.054688 207.636719 "/>
<g style="fill:rgb(100%,0%,0%);fill-opacity:1;">
  <use xlink:href="#glyph0-1" x="238.054688" y="216.299805"/>
</g>
<path style="fill:none;stroke-width:1.2;stroke-linecap:butt;stroke-linejoin:miter;stroke:rgb(0%,0%,0%);stroke-opacity:1;stroke-miterlimit:10;" d="M 240.414062 187.882812 L 229.066406 182.28125 "/>
<path style="fill:none;stroke-width:1.2;stroke-linecap:butt;stroke-linejoin:miter;stroke:rgb(100%,0%,0%);stroke-opacity:1;stroke-miterlimit:10;" d="M 229.066406 182.28125 L 217.71875 176.679688 "/>
<path style="fill:none;stroke-width:1.2;stroke-linecap:butt;stroke-linejoin:miter;stroke:rgb(100%,0%,0%);stroke-opacity:1;stroke-miterlimit:10;" d="M 217.71875 176.679688 L 216.894531 164.050781 "/>
<path style="fill:none;stroke-width:1.2;stroke-linecap:butt;stroke-linejoin:miter;stroke:rgb(0%,0%,0%);stroke-opacity:1;stroke-miterlimit:10;" d="M 216.894531 164.050781 L 216.074219 151.421875 "/>
<path style=" stroke:none;fill-rule:nonzero;fill:rgb(100%,100%,100%);fill-opacity:1;" d="M 213.71875 171.179688 L 221.71875 171.179688 L 221.71875 182.179688 L 213.71875 182.179688 Z M 213.71875 171.179688 "/>
<g style="fill:rgb(100%,0%,0%);fill-opacity:1;">
  <use xlink:href="#glyph0-1" x="213.71875" y="179.842773"/>
</g>
<path style="fill:none;stroke-width:1.2;stroke-linecap:butt;stroke-linejoin:miter;stroke:rgb(0%,0%,0%);stroke-opacity:1;stroke-miterlimit:10;" d="M 216.074219 151.421875 L 193.378906 140.21875 "/>
<path style="fill:none;stroke-width:1.2;stroke-linecap:butt;stroke-linejoin:miter;stroke:rgb(0%,0%,0%);stroke-opacity:1;stroke-miterlimit:10;" d="M 216.441406 144.964844 L 198.285156 136 "/>
<path style="fill:none;stroke-width:1.2;stroke-linecap:butt;stroke-linejoin:miter;stroke:rgb(0%,0%,0%);stroke-opacity:1;stroke-miterlimit:10;" d="M 237.125 137.371094 L 216.074219 151.421875 "/>
<path style="fill:none;stroke-width:1.2;stroke-linecap:butt;stroke-linejoin:miter;stroke:rgb(0%,0%,0%);stroke-opacity:1;stroke-miterlimit:10;" d="M 193.378906 140.21875 L 191.738281 114.964844 "/>
<path style="fill:none;stroke-width:1.2;stroke-linecap:butt;stroke-linejoin:miter;stroke:rgb(0%,0%,0%);stroke-opacity:1;stroke-miterlimit:10;" d="M 193.378906 140.21875 L 172.332031 154.269531 "/>
<path style="fill:none;stroke-width:1.2;stroke-linecap:butt;stroke-linejoin:miter;stroke:rgb(0%,0%,0%);stroke-opacity:1;stroke-miterlimit:10;" d="M 191.738281 114.964844 L 212.785156 100.914062 "/>
<path style="fill:none;stroke-width:1.2;stroke-linecap:butt;stroke-linejoin:miter;stroke:rgb(0%,0%,0%);stroke-opacity:1;stroke-miterlimit:10;" d="M 197.148438 118.511719 L 213.988281 107.269531 "/>
<path style="fill:none;stroke-width:1.2;stroke-linecap:butt;stroke-linejoin:miter;stroke:rgb(0%,0%,0%);stroke-opacity:1;stroke-miterlimit:10;" d="M 212.785156 100.914062 L 235.480469 112.117188 "/>
<path style="fill:none;stroke-width:1.2;stroke-linecap:butt;stroke-linejoin:miter;stroke:rgb(0%,0%,0%);stroke-opacity:1;stroke-miterlimit:10;" d="M 212.785156 100.914062 L 211.964844 88.285156 "/>
<path style="fill:none;stroke-width:1.2;stroke-linecap:butt;stroke-linejoin:miter;stroke:rgb(50%,30%,10%);stroke-opacity:1;stroke-miterlimit:10;" d="M 211.964844 88.285156 L 211.144531 75.65625 "/>
<path style="fill:none;stroke-width:1.2;stroke-linecap:butt;stroke-linejoin:miter;stroke:rgb(0%,0%,0%);stroke-opacity:1;stroke-miterlimit:10;" d="M 235.480469 112.117188 L 237.125 137.371094 "/>
<path style="fill:none;stroke-width:1.2;stroke-linecap:butt;stroke-linejoin:miter;stroke:rgb(0%,0%,0%);stroke-opacity:1;stroke-miterlimit:10;" d="M 229.703125 115.027344 L 231.015625 135.234375 "/>
<path style=" stroke:none;fill-rule:nonzero;fill:rgb(100%,100%,100%);fill-opacity:1;" d="M 206.144531 70.15625 L 217.144531 70.15625 L 217.144531 81.15625 L 206.144531 81.15625 Z M 206.144531 70.15625 "/>
<g style="fill:rgb(50%,30%,10%);fill-opacity:1;">
  <use xlink:href="#glyph0-2" x="206.144531" y="78.819336"/>
  <use xlink:href="#glyph0-3" x="212.543945" y="78.819336"/>
</g>
<path style="fill:none;stroke-width:1.2;stroke-linecap:butt;stroke-linejoin:miter;stroke:rgb(0%,0%,0%);stroke-opacity:1;stroke-miterlimit:10;" d="M 169.359375 154.464844 L 170.179688 167.09375 "/>
<path style="fill:none;stroke-width:1.2;stroke-linecap:butt;stroke-linejoin:miter;stroke:rgb(100%,0%,0%);stroke-opacity:1;stroke-miterlimit:10;" d="M 170.179688 167.09375 L 171.003906 179.71875 "/>
<path style="fill:none;stroke-width:1.2;stroke-linecap:butt;stroke-linejoin:miter;stroke:rgb(0%,0%,0%);stroke-opacity:1;stroke-miterlimit:10;" d="M 175.300781 154.078125 L 176.125 166.707031 "/>
<path style="fill:none;stroke-width:1.2;stroke-linecap:butt;stroke-linejoin:miter;stroke:rgb(100%,0%,0%);stroke-opacity:1;stroke-miterlimit:10;" d="M 176.125 166.707031 L 176.945312 179.332031 "/>
<path style="fill:none;stroke-width:1;stroke-linecap:butt;stroke-linejoin:miter;stroke:rgb(0%,0%,0%);stroke-opacity:1;stroke-miterlimit:10;" d="M 149.636719 143.066406 L 149.636719 143.066406 M 152.054688 144.84375 L 152.515625 143.90625 M 154.472656 146.617188 L 155.398438 144.746094 M 156.890625 148.394531 L 158.277344 145.589844 M 159.308594 150.167969 L 161.15625 146.429688 M 161.726562 151.945312 L 164.035156 147.269531 M 164.148438 153.71875 L 166.917969 148.109375 M 166.566406 155.496094 L 169.796875 148.949219 M 168.984375 157.269531 L 172.675781 149.789062 M 170.355469 158.277344 L 174.308594 150.265625 "/>
<path style=" stroke:none;fill-rule:nonzero;fill:rgb(100%,100%,100%);fill-opacity:1;" d="M 169.976562 174.027344 L 177.976562 174.027344 L 177.976562 185.027344 L 169.976562 185.027344 Z M 169.976562 174.027344 "/>
<g style="fill:rgb(100%,0%,0%);fill-opacity:1;">
  <use xlink:href="#glyph0-1" x="169.976562" y="182.69043"/>
</g>
<path style="fill:none;stroke-width:1.2;stroke-linecap:butt;stroke-linejoin:miter;stroke:rgb(0%,0%,0%);stroke-opacity:1;stroke-miterlimit:10;" d="M 149.636719 143.066406 L 124.382812 144.710938 "/>
<path style="fill:none;stroke-width:1.2;stroke-linecap:butt;stroke-linejoin:miter;stroke:rgb(100%,0%,0%);stroke-opacity:1;stroke-miterlimit:10;" d="M 135.585938 122.015625 L 142.609375 132.542969 "/>
<path style="fill:none;stroke-width:1.2;stroke-linecap:butt;stroke-linejoin:miter;stroke:rgb(0%,0%,0%);stroke-opacity:1;stroke-miterlimit:10;" d="M 142.609375 132.542969 L 149.636719 143.066406 "/>
<path style="fill:none;stroke-width:1.2;stroke-linecap:butt;stroke-linejoin:miter;stroke:rgb(0%,0%,0%);stroke-opacity:1;stroke-miterlimit:10;" d="M 124.382812 144.710938 L 129.984375 133.363281 "/>
<path style="fill:none;stroke-width:1.2;stroke-linecap:butt;stroke-linejoin:miter;stroke:rgb(100%,0%,0%);stroke-opacity:1;stroke-miterlimit:10;" d="M 129.984375 133.363281 L 135.585938 122.015625 "/>
<path style="fill:none;stroke-width:1;stroke-linecap:butt;stroke-linejoin:miter;stroke:rgb(0%,0%,0%);stroke-opacity:1;stroke-miterlimit:10;" d="M 124.382812 144.710938 L 124.382812 144.710938 M 121.636719 145.917969 L 122.214844 146.785156 M 118.886719 147.125 L 120.046875 148.859375 M 116.140625 148.332031 L 117.878906 150.933594 M 113.394531 149.539062 L 115.710938 153.007812 M 110.648438 150.742188 L 113.542969 155.082031 M 107.902344 151.949219 L 111.375 157.152344 M 105.15625 153.15625 L 109.207031 159.226562 M 102.410156 154.363281 L 107.039062 161.300781 M 100.851562 155.046875 L 105.8125 162.476562 "/>
<path style=" stroke:none;fill-rule:nonzero;fill:rgb(100%,100%,100%);fill-opacity:1;" d="M 131.585938 116.515625 L 139.585938 116.515625 L 139.585938 127.515625 L 131.585938 127.515625 Z M 131.585938 116.515625 "/>
<g style="fill:rgb(100%,0%,0%);fill-opacity:1;">
  <use xlink:href="#glyph0-1" x="131.585938" y="125.178711"/>
</g>
<path style="fill:none;stroke-width:1.2;stroke-linecap:butt;stroke-linejoin:miter;stroke:rgb(0%,0%,0%);stroke-opacity:1;stroke-miterlimit:10;" d="M 103.332031 158.761719 L 80.636719 147.558594 "/>
<path style="fill:none;stroke-width:1.2;stroke-linecap:butt;stroke-linejoin:miter;stroke:rgb(0%,0%,0%);stroke-opacity:1;stroke-miterlimit:10;" d="M 98.425781 162.980469 L 80.269531 154.019531 "/>
<path style="fill:none;stroke-width:1.2;stroke-linecap:butt;stroke-linejoin:miter;stroke:rgb(0%,0%,0%);stroke-opacity:1;stroke-miterlimit:10;" d="M 104.976562 184.019531 L 103.332031 158.761719 "/>
<path style="fill:none;stroke-width:1.2;stroke-linecap:butt;stroke-linejoin:miter;stroke:rgb(0%,0%,0%);stroke-opacity:1;stroke-miterlimit:10;" d="M 80.636719 147.558594 L 59.585938 161.609375 "/>
<path style="fill:none;stroke-width:1.2;stroke-linecap:butt;stroke-linejoin:miter;stroke:rgb(0%,0%,0%);stroke-opacity:1;stroke-miterlimit:10;" d="M 59.585938 161.609375 L 61.230469 186.863281 "/>
<path style="fill:none;stroke-width:1.2;stroke-linecap:butt;stroke-linejoin:miter;stroke:rgb(0%,0%,0%);stroke-opacity:1;stroke-miterlimit:10;" d="M 65.695312 163.75 L 67.011719 183.953125 "/>
<path style="fill:none;stroke-width:1.2;stroke-linecap:butt;stroke-linejoin:miter;stroke:rgb(0%,0%,0%);stroke-opacity:1;stroke-miterlimit:10;" d="M 59.585938 161.609375 L 48.242188 156.007812 "/>
<path style="fill:none;stroke-width:1.2;stroke-linecap:butt;stroke-linejoin:miter;stroke:rgb(100%,0%,0%);stroke-opacity:1;stroke-miterlimit:10;" d="M 48.242188 156.007812 L 36.894531 150.40625 "/>
<path style="fill:none;stroke-width:1.2;stroke-linecap:butt;stroke-linejoin:miter;stroke:rgb(0%,0%,0%);stroke-opacity:1;stroke-miterlimit:10;" d="M 61.230469 186.863281 L 83.925781 198.070312 "/>
<path style="fill:none;stroke-width:1.2;stroke-linecap:butt;stroke-linejoin:miter;stroke:rgb(0%,0%,0%);stroke-opacity:1;stroke-miterlimit:10;" d="M 83.925781 198.070312 L 104.976562 184.019531 "/>
<path style="fill:none;stroke-width:1.2;stroke-linecap:butt;stroke-linejoin:miter;stroke:rgb(0%,0%,0%);stroke-opacity:1;stroke-miterlimit:10;" d="M 82.722656 191.710938 L 99.5625 180.46875 "/>
<path style="fill:none;stroke-width:1.2;stroke-linecap:butt;stroke-linejoin:miter;stroke:rgb(100%,0%,0%);stroke-opacity:1;stroke-miterlimit:10;" d="M 36.894531 150.40625 L 36.070312 137.777344 "/>
<path style="fill:none;stroke-width:1.2;stroke-linecap:butt;stroke-linejoin:miter;stroke:rgb(0%,0%,0%);stroke-opacity:1;stroke-miterlimit:10;" d="M 36.070312 137.777344 L 35.25 125.148438 "/>
<path style=" stroke:none;fill-rule:nonzero;fill:rgb(100%,100%,100%);fill-opacity:1;" d="M 32.894531 144.90625 L 40.894531 144.90625 L 40.894531 155.90625 L 32.894531 155.90625 Z M 32.894531 144.90625 "/>
<g style="fill:rgb(100%,0%,0%);fill-opacity:1;">
  <use xlink:href="#glyph0-1" x="32.894531" y="153.569336"/>
</g>
</g>
</svg>

<svg xmlns="http://www.w3.org/2000/svg" xmlns:xlink="http://www.w3.org/1999/xlink" width="300pt" height="300pt" viewBox="0 0 300 300"><defs><symbol overflow="visible"><path d="M.453 1.594v-7.938h4.5v7.938zm.5-.5h3.5v-6.938h-3.5zm0 0"/></symbol><symbol overflow="visible" id="a"><path d="M3.547-5.953c-.65 0-1.164.242-1.547.72-.375.48-.563 1.13-.563 1.952 0 .835.188 1.49.563 1.967.383.48.898.72 1.547.72.644 0 1.156-.24 1.53-.72.376-.476.564-1.132.564-1.968 0-.822-.187-1.474-.562-1.954-.375-.477-.887-.72-1.53-.72zm0-.734c.914 0 1.648.312 2.203.937.55.617.828 1.438.828 2.47 0 1.042-.277 1.87-.828 2.483-.555.617-1.29.922-2.203.922-.93 0-1.668-.305-2.22-.922C.774-1.41.5-2.237.5-3.28c0-1.033.273-1.853.828-2.47.55-.625 1.29-.938 2.22-.938zm0 0"/></symbol><symbol overflow="visible" id="b"><path d="M1.766-3.14v2.406h1.421c.477 0 .833-.098 1.063-.297.227-.197.344-.5.344-.907 0-.407-.117-.708-.344-.907-.23-.195-.586-.297-1.063-.297zm0-2.688v1.97h1.312c.438 0 .758-.08.97-.236.218-.164.327-.414.327-.75 0-.332-.11-.578-.328-.734-.21-.164-.53-.25-.97-.25zM.89-6.562h2.266c.676 0 1.196.14 1.563.42.362.283.546.685.546 1.205 0 .398-.094.714-.282.953-.187.242-.464.39-.828.453.438.092.774.292 1.016.592.238.293.36.657.36 1.094 0 .594-.2 1.055-.595 1.375-.398.314-.964.47-1.703.47H.89zm0 0"/></symbol><symbol overflow="visible" id="c"><path d="M3.703-4.172c-.094-.05-.195-.086-.297-.11-.105-.02-.226-.03-.36-.03-.46 0-.812.152-1.062.453-.242.294-.36.715-.36 1.266V0H.813v-4.922h.813v.766c.176-.3.398-.524.672-.672.27-.145.598-.22.984-.22.064 0 .126.01.19.017.07.01.147.022.233.03zm0 0"/></symbol></defs><g><path fill="#fff" d="M0 0h300v300H0z"/><path d="M264.75 224.344l-11.348-5.602" stroke-width="1.2" stroke="#000" stroke-miterlimit="10" fill="none"/><path d="M253.402 218.742l-11.347-5.605M242.055 213.137l-.82-12.625" stroke-width="1.2" stroke="#f00" stroke-miterlimit="10" fill="none"/><path d="M241.234 200.512l-.82-12.63" stroke-width="1.2" stroke="#000" stroke-miterlimit="10" fill="none"/><path d="M238.055 207.637h8v11h-8zm0 0" fill="#fff"/><use xlink:href="#a" x="238.055" y="216.3" fill="#f00"/><path d="M240.414 187.883l-11.348-5.602" stroke-width="1.2" stroke="#000" stroke-miterlimit="10" fill="none"/><path d="M229.066 182.28l-11.347-5.6M217.72 176.68l-.825-12.63" stroke-width="1.2" stroke="#f00" stroke-miterlimit="10" fill="none"/><path d="M216.895 164.05l-.82-12.628" stroke-width="1.2" stroke="#000" stroke-miterlimit="10" fill="none"/><path d="M213.72 171.18h8v11h-8zm0 0" fill="#fff"/><use xlink:href="#a" x="213.719" y="179.843" fill="#f00"/><path d="M216.074 151.422L193.38 140.22M216.44 144.965L198.286 136M237.125 137.37l-21.05 14.052M193.38 140.22l-1.642-25.255M193.38 140.22l-21.048 14.05M191.738 114.965l21.047-14.05M197.148 118.512l16.84-11.242M212.785 100.914l22.695 11.203M212.785 100.914l-.82-12.63" stroke-width="1.2" stroke="#000" stroke-miterlimit="10" fill="none"/><path d="M211.965 88.285l-.82-12.63" stroke-width="1.2" stroke="#7f4d1a" stroke-miterlimit="10" fill="none"/><path d="M235.48 112.117l1.645 25.254M229.703 115.027l1.313 20.207" stroke-width="1.2" stroke="#000" stroke-miterlimit="10" fill="none"/><path d="M206.145 70.156h11v11h-11zm0 0" fill="#fff"/><g fill="#7f4d1a"><use xlink:href="#b" x="206.145" y="78.819"/><use xlink:href="#c" x="212.544" y="78.819"/></g><path d="M169.36 154.465l.82 12.63" stroke-width="1.2" stroke="#000" stroke-miterlimit="10" fill="none"/><path d="M170.18 167.094l.824 12.625" stroke-width="1.2" stroke="#f00" stroke-miterlimit="10" fill="none"/><path d="M175.3 154.078l.825 12.63" stroke-width="1.2" stroke="#000" stroke-miterlimit="10" fill="none"/><path d="M176.125 166.707l.82 12.625" stroke-width="1.2" stroke="#f00" stroke-miterlimit="10" fill="none"/><path d="M149.637 143.066m2.418 1.778l.46-.938m1.958 2.71l.925-1.87m1.493 3.65l1.387-2.806m1.032 4.578l1.846-3.738m.57 5.515l2.31-4.675m.112 6.45l2.77-5.61m-.352 7.386l3.23-6.547m-.812 8.32l3.692-7.48m-2.32 8.487l3.953-8.01" stroke="#000" stroke-miterlimit="10" fill="none"/><path d="M169.977 174.027h8v11h-8zm0 0" fill="#fff"/><use xlink:href="#a" x="169.977" y="182.69" fill="#f00"/><path d="M149.637 143.066l-25.254 1.645" stroke-width="1.2" stroke="#000" stroke-miterlimit="10" fill="none"/><path d="M135.586 122.016l7.023 10.527" stroke-width="1.2" stroke="#f00" stroke-miterlimit="10" fill="none"/><path d="M142.61 132.543l7.027 10.523M124.383 144.71l5.6-11.347" stroke-width="1.2" stroke="#000" stroke-miterlimit="10" fill="none"/><path d="M129.984 133.363l5.602-11.347" stroke-width="1.2" stroke="#f00" stroke-miterlimit="10" fill="none"/><path d="M124.383 144.71m-2.746 1.208l.578.867m-3.328.34l1.16 1.734m-3.906-.528l1.74 2.602m-4.485-1.395l2.316 3.468m-5.062-2.266l2.895 4.34m-5.64-3.133l3.472 5.202m-6.22-3.996l4.052 6.07m-6.797-4.863l4.63 6.938m-6.188-6.253l4.96 7.43" stroke="#000" stroke-miterlimit="10" fill="none"/><path d="M131.586 116.516h8v11h-8zm0 0" fill="#fff"/><use xlink:href="#a" x="131.586" y="125.179" fill="#f00"/><path d="M103.332 158.762L80.637 147.56M98.426 162.98l-18.156-8.96M104.977 184.02l-1.645-25.258M80.637 147.56l-21.05 14.05M59.586 161.61l1.644 25.253M65.695 163.75l1.317 20.203M59.586 161.61l-11.344-5.602" stroke-width="1.2" stroke="#000" stroke-miterlimit="10" fill="none"/><path d="M48.242 156.008l-11.347-5.602" stroke-width="1.2" stroke="#f00" stroke-miterlimit="10" fill="none"/><path d="M61.23 186.863l22.696 11.207M83.926 198.07l21.05-14.05M82.723 191.71l16.84-11.24" stroke-width="1.2" stroke="#000" stroke-miterlimit="10" fill="none"/><path d="M36.895 150.406l-.825-12.63" stroke-width="1.2" stroke="#f00" stroke-miterlimit="10" fill="none"/><path d="M36.07 137.777l-.82-12.63" stroke-width="1.2" stroke="#000" stroke-miterlimit="10" fill="none"/><path d="M32.895 144.906h8v11h-8zm0 0" fill="#fff"/><use xlink:href="#a" x="32.895" y="153.569" fill="#f00"/></g></svg>
